;Generated with Cura_SteamEngine 15.05
; Default start code
G28 ; Home extruder
G1 Z5 F100
M107 ; Turn off fan
G90 ; Absolute positioning
M82 ; Extruder in absolute mode
M190 S85
; Activate all used extruder
M104 T0 S185
G92 E0 ; Reset extruder position
; Wait for all used extruders to reach temperature
M109 T0 S185
;Layer count: 318
;LAYER:0
M107
G0 F9000 X59.074 Y59.074 Z0.300
;TYPE:SKIRT
G1 F1800 X68.149 Y70.000 E0.70860
G1 X59.074 Y80.925 E1.41717
G1 X70.000 Y71.850 E2.12577
G1 X80.925 Y80.925 E2.83434
G1 X71.850 Y70.000 E3.54291
G1 X80.926 Y59.073 E4.25158
G1 X70.000 Y68.149 E4.96022
G1 X59.074 Y59.074 E5.66882
G0 F9000 X53.933 Y52.883
G1 F1800 X58.023 Y50.151 E5.91421
G1 X58.398 Y49.901 E5.93669
G1 X61.068 Y48.585 E6.08520
G1 X63.935 Y47.603 E6.23640
G1 X66.675 Y47.051 E6.37584
G1 X66.951 Y46.993 E6.38991
G1 X69.706 Y46.813 E6.52765
G1 X69.984 Y46.792 E6.54156
G1 X72.782 Y46.975 E6.68145
G1 X73.043 Y46.995 E6.69451
G1 X75.767 Y47.535 E6.83306
G1 X76.025 Y47.590 E6.84622
G1 X78.826 Y48.541 E6.99379
G1 X81.549 Y49.873 E7.14503
G1 X83.723 Y51.318 E7.27526
G1 X86.079 Y52.869 E7.41599
G1 X86.260 Y52.651 E7.43012
G1 X86.663 Y53.254 E7.46631
G1 X87.370 Y53.720 E7.50855
G1 X87.115 Y53.932 E7.52510
G1 X89.848 Y58.023 E7.77055
G1 X90.098 Y58.398 E7.79304
G1 X91.414 Y61.068 E7.94155
G1 X92.396 Y63.935 E8.09274
G1 X92.948 Y66.675 E8.23219
G1 X93.006 Y66.951 E8.24626
G1 X93.187 Y69.706 E8.38400
G1 X93.208 Y69.985 E8.39796
G1 X93.007 Y73.029 E8.55015
G1 X92.416 Y76.006 E8.70158
G1 X91.440 Y78.880 E8.85300
G1 X90.097 Y81.603 E9.00448
G1 X87.115 Y86.067 E9.27231
G1 X87.347 Y86.259 E9.28733
G1 X86.696 Y86.694 E9.32640
G1 X86.260 Y87.347 E9.36557
G1 X86.067 Y87.114 E9.38066
G1 X81.603 Y90.097 E9.64852
G1 X78.880 Y91.440 E9.80000
G1 X76.006 Y92.416 E9.95142
G1 X73.029 Y93.007 E10.10284
G1 X70.000 Y93.207 E10.25429
G1 X66.970 Y93.007 E10.40579
G1 X63.993 Y92.416 E10.55721
G1 X61.119 Y91.440 E10.70864
G1 X58.397 Y90.097 E10.86007
G1 X53.932 Y87.115 E11.12794
G1 X53.739 Y87.347 E11.14299
G1 X53.304 Y86.696 E11.18206
G1 X52.651 Y86.260 E11.22123
G1 X52.884 Y86.067 E11.23632
G1 X49.902 Y81.603 E11.50415
G1 X48.559 Y78.880 E11.65563
G1 X47.583 Y76.006 E11.80706
G1 X46.992 Y73.028 E11.95853
G1 X46.793 Y70.000 E12.10992
G1 X46.975 Y67.217 E12.24906
G1 X46.995 Y66.956 E12.26212
G1 X47.535 Y64.232 E12.40067
G1 X47.590 Y63.974 E12.41383
G1 X48.541 Y61.173 E12.56140
G1 X49.873 Y58.451 E12.71259
G1 X51.318 Y56.276 E12.84287
G1 X52.870 Y53.920 E12.98362
G1 X52.652 Y53.739 E12.99776
G1 X53.254 Y53.337 E13.03387
G1 X53.721 Y52.628 E13.07623
G1 X53.933 Y52.883 E13.09277
G1 F2400 E9.09277
G1 Z1.300
G0 F9000 X54.072 Y58.999
;TYPE:WALL-INNER
G1 Z0.300
G1 F2400 E13.09277
G1 F1800 X63.209 Y70.001 E13.80627
G1 X54.071 Y81.003 E14.51980
G1 X53.199 Y79.698 E14.59810
G1 X52.078 Y77.424 E14.72459
G1 X51.261 Y75.018 E14.85136
G1 X50.768 Y72.537 E14.97755
G1 X50.602 Y70.000 E15.10440
G1 X50.766 Y67.481 E15.23034
G1 X51.259 Y64.992 E15.35693
G1 X52.060 Y62.627 E15.48150
G1 X53.177 Y60.346 E15.60821
G1 X54.072 Y58.999 E15.68889
G0 F9000 X53.087 Y60.297
G0 X52.829 Y60.148
;TYPE:WALL-OUTER
G1 F1800 X54.036 Y58.330 E15.79776
G1 X63.729 Y70.000 E16.55462
G1 X54.035 Y81.670 E17.31151
G1 X52.851 Y79.898 E17.41784
G1 X51.707 Y77.577 E17.54693
G1 X50.875 Y75.126 E17.67607
G1 X50.370 Y72.588 E17.80517
G1 X50.201 Y70.000 E17.93456
G1 X50.367 Y67.455 E18.06180
G1 X50.369 Y67.418 E18.06365
G1 X50.866 Y64.916 E18.19091
G1 X50.876 Y64.870 E18.19326
G1 X51.688 Y62.478 E18.31929
G1 X52.829 Y60.148 E18.44872
G0 F9000 X53.317 Y60.388
;TYPE:SKIN
G1 F1800 X62.983 Y70.054 E19.13071
G0 F9000 X62.726 Y70.363
G1 F1800 X53.127 Y60.764 E19.80797
G0 F9000 X52.941 Y61.144
G1 F1800 X62.470 Y70.672 E20.48026
G0 F9000 X62.213 Y70.981
G1 F1800 X52.755 Y61.523 E21.14757
G0 F9000 X52.569 Y61.903
G1 F1800 X61.956 Y71.290 E21.80988
G0 F9000 X61.700 Y71.599
G1 F1800 X52.383 Y62.283 E22.46721
G0 F9000 X52.197 Y62.663
G1 F1800 X61.443 Y71.908 E23.11953
G0 F9000 X61.186 Y72.217
G1 F1800 X52.052 Y63.083 E23.76398
G0 F9000 X51.908 Y63.505
G1 F1800 X60.929 Y72.526 E24.40046
G0 F9000 X60.673 Y72.835
G1 F1800 X51.765 Y63.928 E25.02893
G0 F9000 X51.623 Y64.350
G1 F1800 X60.416 Y73.144 E25.64936
G0 F9000 X60.159 Y73.453
G1 F1800 X51.479 Y64.773 E26.26178
G0 F9000 X51.357 Y65.216
G1 F1800 X59.903 Y73.762 E26.86475
G0 F9000 X59.646 Y74.071
G1 F1800 X51.263 Y65.688 E27.45621
G0 F9000 X51.169 Y66.160
G1 F1800 X59.389 Y74.380 E28.03618
G0 F9000 X59.133 Y74.689
G1 F1800 X51.075 Y66.632 E28.60468
G0 F9000 X50.982 Y67.104
G1 F1800 X58.876 Y74.998 E29.16164
G0 F9000 X58.619 Y75.307
G1 F1800 X50.898 Y67.586 E29.70640
G0 F9000 X50.864 Y68.117
G1 F1800 X58.363 Y75.616 E30.23550
G0 F9000 X58.106 Y75.925
G1 F1800 X50.830 Y68.649 E30.74886
G0 F9000 X50.795 Y69.180
G1 F1800 X57.849 Y76.234 E31.24656
G0 F9000 X57.593 Y76.543
G1 F1800 X50.761 Y69.712 E31.72855
G0 F9000 X50.761 Y70.277
G1 F1800 X57.336 Y76.852 E32.19246
G0 F9000 X57.079 Y77.161
G1 F1800 X50.800 Y70.882 E32.63547
G0 F9000 X50.839 Y71.487
G1 F1800 X56.823 Y77.470 E33.05764
G0 F9000 X56.566 Y77.779
G1 F1800 X50.879 Y72.092 E33.45889
G0 F9000 X50.947 Y72.726
G1 F1800 X56.309 Y78.088 E33.83721
G0 F9000 X56.053 Y78.397
G1 F1800 X51.088 Y73.433 E34.18748
G0 F9000 X51.228 Y74.138
G1 F1800 X55.796 Y78.706 E34.50978
G0 F9000 X55.539 Y79.015
G1 F1800 X51.369 Y74.845 E34.80399
G0 F9000 X51.630 Y75.671
G1 F1800 X55.283 Y79.324 E35.06173
G0 F9000 X55.026 Y79.633
G1 F1800 X51.921 Y76.528 E35.28081
G0 F9000 X52.216 Y77.389
G1 F1800 X54.769 Y79.942 E35.46094
G0 F9000 X54.512 Y80.251
G1 F1800 X52.767 Y78.505 E35.58409
G0 F9000 X53.317 Y79.622
G1 F1800 X54.256 Y80.560 E35.65031
G0 F9000 X60.734 Y67.240
G1 F1800 X53.542 Y60.048 E36.15774
G0 F9000 X53.768 Y59.708
G1 F1800 X57.964 Y63.904 E36.45379
G0 F9000 X55.193 Y60.567
G1 F1800 X53.994 Y59.368 E36.53839
G1 F2400 E32.53839
G1 Z1.300
G0 F9000 X58.996 Y54.071
;TYPE:WALL-INNER
G1 Z0.300
G1 F2400 E36.53839
G1 F1800 X60.302 Y53.199 E36.61673
G1 X62.524 Y52.104 E36.74032
G1 X64.936 Y51.277 E36.86753
G1 X67.458 Y50.770 E36.99587
G1 X69.989 Y50.603 E37.12242
G1 X70.003 Y50.602 E37.12312
G1 X72.518 Y50.766 E37.24886
G1 X75.007 Y51.259 E37.37545
G1 X77.372 Y52.060 E37.50002
G1 X79.654 Y53.177 E37.62678
G1 X81.001 Y54.072 E37.70746
G1 X70.000 Y63.210 E38.42095
G1 X58.996 Y54.071 E39.13459
G0 F9000 X60.252 Y53.112
G0 X60.101 Y52.851
;TYPE:WALL-OUTER
G1 F1800 X62.373 Y51.732 E39.26094
G1 X64.826 Y50.891 E39.39032
G1 X67.377 Y50.378 E39.52013
G1 X69.961 Y50.204 E39.64934
G1 X69.997 Y50.201 E39.65115
G1 X72.544 Y50.367 E39.77849
G1 X72.581 Y50.369 E39.78033
G1 X75.083 Y50.866 E39.90760
G1 X75.129 Y50.876 E39.90995
G1 X77.521 Y51.688 E40.03597
G1 X79.852 Y52.829 E40.16545
G1 X81.669 Y54.036 E40.27428
G1 X70.000 Y63.729 E41.03110
G1 X58.329 Y54.035 E41.78803
G1 X60.101 Y52.851 E41.89435
G0 F9000 X60.384 Y53.313
;TYPE:SKIN
G1 F1800 X70.053 Y62.982 E42.57655
G0 F9000 X70.362 Y62.726
G1 F1800 X60.763 Y53.127 E43.25381
G0 F9000 X61.142 Y52.940
G1 F1800 X70.671 Y62.469 E43.92614
G0 F9000 X70.980 Y62.212
G1 F1800 X61.521 Y52.753 E44.59352
G0 F9000 X61.900 Y52.567
G1 F1800 X71.289 Y61.955 E45.25593
G0 F9000 X71.598 Y61.699
G1 F1800 X62.279 Y52.379 E45.91347
G0 F9000 X62.668 Y52.202
G1 F1800 X71.907 Y61.442 E46.56537
G0 F9000 X72.216 Y61.185
G1 F1800 X63.088 Y52.057 E47.20940
G0 F9000 X63.510 Y51.913
G1 F1800 X72.525 Y60.929 E47.84549
G0 F9000 X72.834 Y60.672
G1 F1800 X63.930 Y51.768 E48.47371
G0 F9000 X64.352 Y51.624
G1 F1800 X73.143 Y60.415 E49.09397
G0 F9000 X73.452 Y60.159
G1 F1800 X64.773 Y51.480 E49.70632
G0 F9000 X65.221 Y51.362
G1 F1800 X73.761 Y59.902 E50.30886
G0 F9000 X74.070 Y59.645
G1 F1800 X65.692 Y51.267 E50.89997
G0 F9000 X66.163 Y51.172
G1 F1800 X74.379 Y59.389 E51.47969
G0 F9000 X74.688 Y59.132
G1 F1800 X66.634 Y51.077 E52.04798
G0 F9000 X67.105 Y50.983
G1 F1800 X74.997 Y58.875 E52.60480
G0 F9000 X75.306 Y58.619
G1 F1800 X67.589 Y50.901 E53.14931
G0 F9000 X68.120 Y50.867
G1 F1800 X75.615 Y58.362 E53.67813
G0 F9000 X75.924 Y58.105
G1 F1800 X68.650 Y50.831 E54.19135
G0 F9000 X69.181 Y50.797
G1 F1800 X76.233 Y57.849 E54.68890
G0 F9000 X76.542 Y57.592
G1 F1800 X69.712 Y50.761 E55.17083
G0 F9000 X70.277 Y50.761
G1 F1800 X76.851 Y57.335 E55.63466
G0 F9000 X77.160 Y57.079
G1 F1800 X70.882 Y50.800 E56.07764
G0 F9000 X71.487 Y50.839
G1 F1800 X77.469 Y56.822 E56.49974
G0 F9000 X77.778 Y56.565
G1 F1800 X72.092 Y50.879 E56.90092
G0 F9000 X72.729 Y50.950
G1 F1800 X78.087 Y56.309 E57.27899
G0 F9000 X78.396 Y56.052
G1 F1800 X73.435 Y51.090 E57.62905
G0 F9000 X74.140 Y51.230
G1 F1800 X78.705 Y55.795 E57.95114
G0 F9000 X79.014 Y55.538
G1 F1800 X74.846 Y51.370 E58.24521
G0 F9000 X75.674 Y51.632
G1 F1800 X79.323 Y55.282 E58.50270
G0 F9000 X79.632 Y55.025
G1 F1800 X76.530 Y51.922 E58.72160
G0 F9000 X77.406 Y52.233
G1 F1800 X79.941 Y54.768 E58.90046
G0 F9000 X80.250 Y54.512
G1 F1800 X78.515 Y52.777 E59.02287
G0 F9000 X79.645 Y53.341
G1 F1800 X80.559 Y54.255 E59.08736
G0 F9000 X67.252 Y60.746
G1 F1800 X60.044 Y53.539 E59.59589
G0 F9000 X59.705 Y53.765
G1 F1800 X63.912 Y57.972 E59.89272
G0 F9000 X60.572 Y55.198
G1 F1800 X59.366 Y53.992 E59.97781
G1 F2400 E55.97781
G1 Z1.300
G0 F9000 X76.790 Y70.001
;TYPE:WALL-INNER
G1 Z0.300
G1 F2400 E59.97781
G1 F1800 X85.929 Y58.997 E60.69144
G1 X86.800 Y60.302 E60.76972
G1 X87.895 Y62.524 E60.89331
G1 X88.722 Y64.936 E61.02052
G1 X89.229 Y67.458 E61.14886
G1 X89.397 Y69.989 E61.27541
G1 X89.398 Y70.000 E61.27596
G1 X89.231 Y72.537 E61.40281
G1 X88.738 Y75.018 E61.52900
G1 X87.921 Y77.424 E61.65577
G1 X86.800 Y79.698 E61.78226
G1 X85.928 Y81.003 E61.86056
G1 X76.790 Y70.001 E62.57409
G0 F9000 X76.270 Y70.000
;TYPE:WALL-OUTER
G1 F1800 X85.964 Y58.329 E63.33102
G1 X87.148 Y60.101 E63.43734
G1 X88.267 Y62.373 E63.56369
G1 X89.108 Y64.826 E63.69307
G1 X89.621 Y67.377 E63.82289
G1 X89.796 Y69.961 E63.95210
G1 X89.799 Y69.997 E63.95390
G1 X89.629 Y72.588 E64.08344
G1 X89.124 Y75.126 E64.21255
G1 X88.292 Y77.577 E64.34168
G1 X87.148 Y79.898 E64.47078
G1 X85.964 Y81.670 E64.57710
G1 X76.270 Y70.000 E65.33399
G0 F9000 X77.016 Y69.945
;TYPE:SKIN
G1 F1800 X86.685 Y79.614 E66.01619
G0 F9000 X86.460 Y79.954
G1 F1800 X79.251 Y72.746 E66.52479
G0 F9000 X77.273 Y69.636
G1 F1800 X86.872 Y79.235 E67.20205
G0 F9000 X87.058 Y78.856
G1 F1800 X77.530 Y69.327 E67.87434
G0 F9000 X77.786 Y69.018
G1 F1800 X87.245 Y78.477 E68.54172
G0 F9000 X87.432 Y78.098
G1 F1800 X78.043 Y68.709 E69.20417
G0 F9000 X78.300 Y68.400
G1 F1800 X87.619 Y77.720 E69.86171
G0 F9000 X87.802 Y77.337
G1 F1800 X78.556 Y68.091 E70.51406
G0 F9000 X78.813 Y67.782
G1 F1800 X87.945 Y76.914 E71.15837
G0 F9000 X88.089 Y76.492
G1 F1800 X79.070 Y67.473 E71.79471
G0 F9000 X79.326 Y67.164
G1 F1800 X88.232 Y76.070 E72.42308
G0 F9000 X88.376 Y75.648
G1 F1800 X79.583 Y66.855 E73.04347
G0 F9000 X79.840 Y66.546
G1 F1800 X88.519 Y75.225 E73.65582
G0 F9000 X88.641 Y74.782
G1 F1800 X80.096 Y66.237 E74.25872
G0 F9000 X80.353 Y65.928
G1 F1800 X88.735 Y74.310 E74.85012
G0 F9000 X88.829 Y73.838
G1 F1800 X80.610 Y65.619 E75.43001
G0 F9000 X80.866 Y65.310
G1 F1800 X88.923 Y73.367 E75.99848
G0 F9000 X89.017 Y72.895
G1 F1800 X81.123 Y65.001 E76.55544
G0 F9000 X81.380 Y64.692
G1 F1800 X89.099 Y72.411 E77.10006
G0 F9000 X89.134 Y71.880
G1 F1800 X81.636 Y64.383 E77.62905
G0 F9000 X81.893 Y64.074
G1 F1800 X89.168 Y71.349 E78.14234
G0 F9000 X89.202 Y70.818
G1 F1800 X82.150 Y63.765 E78.63993
G0 F9000 X82.406 Y63.456
G1 F1800 X89.237 Y70.287 E79.12189
G0 F9000 X89.238 Y69.722
G1 F1800 X82.663 Y63.147 E79.58579
G0 F9000 X82.920 Y62.838
G1 F1800 X89.198 Y69.116 E80.02874
G0 F9000 X89.158 Y68.510
G1 F1800 X83.176 Y62.529 E80.45077
G0 F9000 X83.433 Y62.220
G1 F1800 X89.118 Y67.905 E80.85188
G0 F9000 X89.049 Y67.270
G1 F1800 X83.690 Y61.911 E81.22998
G0 F9000 X83.947 Y61.602
G1 F1800 X88.906 Y66.562 E81.57990
G0 F9000 X88.764 Y65.854
G1 F1800 X84.202 Y61.292 E81.90178
G0 F9000 X84.459 Y60.983
G1 F1800 X88.621 Y65.145 E82.19543
G0 F9000 X88.363 Y64.321
G1 F1800 X84.716 Y60.674 E82.45274
G0 F9000 X84.973 Y60.365
G1 F1800 X88.068 Y63.461 E82.67115
G0 F9000 X87.773 Y62.600
G1 F1800 X85.229 Y60.056 E82.85064
G0 F9000 X85.486 Y59.747
G1 F1800 X87.231 Y61.492 E82.97376
G0 F9000 X86.680 Y60.376
G1 F1800 X85.743 Y59.438 E83.03990
G0 F9000 X82.025 Y76.086
G1 F1800 X86.233 Y80.294 E83.33680
G0 F9000 X86.006 Y80.632
G1 F1800 X84.799 Y79.425 E83.42196
G1 F2400 E79.42196
G1 Z1.300
G0 F9000 X81.002 Y85.929
;TYPE:WALL-INNER
G1 Z0.300
G1 F2400 E83.42196
G1 F1800 X79.698 Y86.800 E83.50020
G1 X77.424 Y87.921 E83.62668
G1 X75.018 Y88.738 E83.75345
G1 X72.537 Y89.231 E83.87965
G1 X70.000 Y89.398 E84.00649
G1 X67.462 Y89.231 E84.13339
G1 X64.981 Y88.738 E84.25959
G1 X62.575 Y87.921 E84.38635
G1 X60.302 Y86.800 E84.51280
G1 X58.997 Y85.929 E84.59107
G1 X70.000 Y76.790 E85.30467
G1 X81.002 Y85.929 E86.01823
G0 F9000 X79.748 Y86.887
G0 X79.898 Y87.148
;TYPE:WALL-OUTER
G1 F1800 X77.577 Y88.292 E86.14733
G1 X75.126 Y89.124 E86.27646
G1 X72.588 Y89.629 E86.40557
G1 X70.000 Y89.799 E86.53496
G1 X67.411 Y89.629 E86.66441
G1 X64.873 Y89.124 E86.79351
G1 X62.422 Y88.292 E86.92264
G1 X60.102 Y87.148 E87.05169
G1 X58.329 Y85.964 E87.15806
G1 X70.000 Y76.270 E87.91499
G1 X81.670 Y85.964 E88.67188
G1 X79.898 Y87.148 E88.77820
G0 F9000 X79.613 Y86.684
;TYPE:SKIN
G1 F1800 X69.945 Y77.016 E89.46033
G0 F9000 X69.636 Y77.273
G1 F1800 X79.234 Y86.871 E90.13752
G0 F9000 X78.855 Y87.058
G1 F1800 X69.327 Y77.530 E90.80977
G0 F9000 X69.018 Y77.786
G1 F1800 X78.476 Y87.244 E91.47709
G0 F9000 X78.097 Y87.431
G1 F1800 X68.709 Y78.043 E92.13946
G0 F9000 X68.400 Y78.300
G1 F1800 X77.719 Y87.619 E92.79697
G0 F9000 X77.336 Y87.802
G1 F1800 X68.091 Y78.556 E93.44929
G0 F9000 X67.782 Y78.813
G1 F1800 X76.914 Y87.944 E94.09356
G0 F9000 X76.491 Y88.088
G1 F1800 X67.473 Y79.070 E94.72983
G0 F9000 X67.164 Y79.326
G1 F1800 X76.069 Y88.232 E95.35816
G0 F9000 X75.647 Y88.375
G1 F1800 X66.855 Y79.583 E95.97849
G0 F9000 X66.546 Y79.840
G1 F1800 X75.224 Y88.518 E96.59077
G0 F9000 X74.781 Y88.640
G1 F1800 X66.237 Y80.096 E97.19359
G0 F9000 X65.928 Y80.353
G1 F1800 X74.309 Y88.734 E97.78492
G0 F9000 X73.838 Y88.828
G1 F1800 X65.619 Y80.610 E98.36478
G0 F9000 X65.310 Y80.866
G1 F1800 X73.366 Y88.922 E98.93317
G0 F9000 X72.894 Y89.016
G1 F1800 X65.001 Y81.123 E99.49006
G0 F9000 X64.692 Y81.380
G1 F1800 X72.411 Y89.098 E100.03465
G0 F9000 X71.880 Y89.133
G1 F1800 X64.383 Y81.636 E100.56360
G0 F9000 X64.074 Y81.893
G1 F1800 X71.348 Y89.167 E101.07682
G0 F9000 X70.817 Y89.202
G1 F1800 X63.765 Y82.150 E101.57438
G0 F9000 X63.456 Y82.406
G1 F1800 X70.286 Y89.236 E102.05627
G0 F9000 X69.721 Y89.237
G1 F1800 X63.147 Y82.663 E102.52010
G0 F9000 X62.838 Y82.920
G1 F1800 X69.116 Y89.197 E102.96301
G0 F9000 X68.510 Y89.158
G1 F1800 X62.529 Y83.176 E103.38504
G0 F9000 X62.220 Y83.433
G1 F1800 X67.905 Y89.118 E103.78615
G0 F9000 X67.271 Y89.050
G1 F1800 X61.911 Y83.690 E104.16432
G0 F9000 X61.602 Y83.947
G1 F1800 X66.564 Y88.909 E104.51442
G0 F9000 X65.858 Y88.768
G1 F1800 X61.293 Y84.203 E104.83651
G0 F9000 X60.984 Y84.460
G1 F1800 X65.152 Y88.628 E105.13058
G0 F9000 X64.325 Y88.367
G1 F1800 X60.675 Y84.717 E105.38811
G0 F9000 X60.366 Y84.973
G1 F1800 X63.469 Y88.076 E105.60704
G0 F9000 X62.608 Y87.781
G1 F1800 X60.057 Y85.230 E105.78703
G0 F9000 X59.748 Y85.487
G1 F1800 X61.492 Y87.230 E105.91004
G0 F9000 X60.375 Y86.679
G1 F1800 X59.439 Y85.743 E105.97608
G0 F9000 X72.748 Y79.253
G1 F1800 X79.953 Y86.459 E106.48447
G0 F9000 X80.293 Y86.233
G1 F1800 X76.090 Y82.030 E106.78101
G0 F9000 X79.432 Y84.806
G1 F1800 X80.632 Y86.006 E106.86568
;LAYER:1
M106 S127
G1 F2400 E102.86568
G1 Z1.300
G0 F9000 X63.209 Y70.000 Z0.700
;TYPE:WALL-INNER
G1 Z0.700
G1 F2400 E106.86568
G1 F2220 X54.070 Y81.002 E107.81709
G1 X53.199 Y79.698 E107.92141
G1 X52.078 Y77.424 E108.09006
G1 X51.261 Y75.018 E108.25908
G1 X50.768 Y72.537 E108.42734
G1 X50.602 Y70.000 E108.59646
G1 X50.752 Y67.692 E108.75032
G1 X50.768 Y67.462 E108.76565
G1 X51.261 Y64.981 E108.93392
G1 X52.004 Y62.789 E109.08788
G1 X52.080 Y62.571 E109.10324
G1 X53.199 Y60.302 E109.27153
G1 X54.070 Y58.997 E109.37590
