;Generated with Cura_SteamEngine 14.09
M109 S210     ;Heatup to 210C
G21           ;metric values
G90           ;absolute positioning
G28           ;Home
G1 Z15.0 F300 ;move the platform down 15mm
G92 E0        ;zero the extruded length
G1 F200 E5    ;extrude 5mm of feed stock
G92 E0        ;zero the extruded length again

;Layer count: 318
;LAYER:0
M107
G0 F9000 X15.373 Y-21.186 Z0.300
G0 X15.487 Y-21.111
;TYPE:SKIRT
G1 F1800 X16.522 Y-22.356 E0.08077
G1 X18.819 Y-18.917 E0.28710
G1 X22.401 Y-16.558 E0.50108
G1 X21.111 Y-15.486 E0.58476
G1 X22.343 Y-13.641 E0.69544
G1 X22.703 Y-13.102 E0.72778
G1 X24.190 Y-10.085 E0.89559
G1 X25.299 Y-6.850 E1.06620
G1 X25.883 Y-3.945 E1.21403
G1 X25.986 Y-3.459 E1.23882
G1 X26.183 Y-0.458 E1.38886
G1 X26.215 Y-0.029 E1.41032
G1 X25.988 Y3.423 E1.58291
G1 X25.320 Y6.785 E1.75392
G1 X24.217 Y10.031 E1.92496
G1 X22.701 Y13.107 E2.09605
G1 X21.110 Y15.488 E2.23892
G1 X22.355 Y16.522 E2.31966
G1 X18.859 Y18.858 E2.52943
G1 X16.521 Y22.357 E2.73938
G1 X15.486 Y21.112 E2.82015
G1 X13.106 Y22.702 E2.96295
G1 X10.030 Y24.218 E3.13404
G1 X6.784 Y25.321 E3.30508
G1 X3.422 Y25.989 E3.47609
G1 X0.000 Y26.214 E3.64718
G1 X-3.423 Y25.989 E3.81832
G1 X-6.785 Y25.321 E3.98933
G1 X-10.032 Y24.218 E4.16042
G1 X-13.106 Y22.702 E4.33142
G1 X-15.487 Y21.112 E4.47425
G1 X-16.522 Y22.357 E4.55503
G1 X-18.858 Y18.861 E4.76480
G1 X-22.360 Y16.522 E4.97490
G1 X-21.113 Y15.486 E5.05578
G1 X-22.702 Y13.107 E5.19851
G1 X-24.218 Y10.031 E5.36960
G1 X-25.321 Y6.785 E5.54064
G1 X-25.989 Y3.421 E5.71175
G1 X-26.213 Y0.002 E5.88269
G1 X-26.018 Y-2.992 E6.03237
G1 X-25.983 Y-3.450 E6.05529
G1 X-25.404 Y-6.369 E6.20376
G1 X-25.308 Y-6.820 E6.22676
G1 X-24.238 Y-9.972 E6.39283
G1 X-22.734 Y-13.044 E6.56347
G1 X-21.173 Y-15.394 E6.70422
G1 X-21.113 Y-15.486 E6.70970
G1 X-22.359 Y-16.521 E6.79052
G1 X-18.917 Y-18.820 E6.99702
G1 X-16.558 Y-22.402 E7.21100
G1 X-15.486 Y-21.111 E7.29472
G1 X-13.642 Y-22.343 E7.40536
G1 X-13.103 Y-22.703 E7.43770
G1 X-10.086 Y-24.190 E7.60550
G1 X-6.851 Y-25.299 E7.77612
G1 X-3.946 Y-25.883 E7.92395
G1 X-3.459 Y-25.986 E7.94878
G1 X-0.457 Y-26.182 E8.09887
G1 X-0.031 Y-26.214 E8.12019
G1 X2.992 Y-26.017 E8.27132
G1 X3.450 Y-25.982 E8.29424
G1 X6.369 Y-25.403 E8.44271
G1 X6.820 Y-25.307 E8.46571
G1 X9.972 Y-24.237 E8.63178
G1 X13.045 Y-22.733 E8.80247
G1 X15.373 Y-21.186 E8.94192
G1 X15.487 Y-21.111 E8.94873
G1 F2700 E4.44873
G0 F9000 X15.929 Y-11.002
;TYPE:WALL-INNER
G1 F2700 E8.94873
G1 F1800 X16.800 Y-9.697 E9.02700
G1 X17.895 Y-7.475 E9.15059
G1 X18.722 Y-5.063 E9.27780
G1 X19.229 Y-2.541 E9.40614
G1 X19.397 Y-0.010 E9.53269
G1 X19.398 Y0.001 E9.53324
G1 X19.231 Y2.538 E9.66009
G1 X18.738 Y5.019 E9.78629
G1 X17.921 Y7.425 E9.91305
G1 X16.800 Y9.699 E10.03954
G1 X15.928 Y11.004 E10.11784
G1 X6.790 Y0.002 E10.83137
G1 X15.929 Y-11.002 E11.54501
G0 F9000 X16.887 Y-9.747
G0 X17.148 Y-9.898
;TYPE:WALL-OUTER
G1 F1800 X18.267 Y-7.626 E11.67136
G1 X19.108 Y-5.173 E11.80074
G1 X19.621 Y-2.622 E11.93056
G1 X19.796 Y-0.038 E12.05977
G1 X19.799 Y-0.002 E12.06157
G1 X19.629 Y2.589 E12.19111
G1 X19.124 Y5.127 E12.32022
G1 X18.292 Y7.578 E12.44935
G1 X17.148 Y9.899 E12.57845
G1 X15.964 Y11.671 E12.68477
G1 X6.270 Y0.001 E13.44166
G1 X15.964 Y-11.670 E14.19859
G1 X17.148 Y-9.898 E14.30491
G0 F9000 X16.887 Y-9.747
G0 X15.743 Y-10.561
;TYPE:FILL
G1 F1800 X16.680 Y-9.623 E14.37106
G0 F9000 X15.486 Y-10.252
G1 F1800 X17.230 Y-8.507 E14.49414
G0 F9000 X17.773 Y-7.399
G1 F1800 X15.229 Y-9.943 E14.67364
G0 F9000 X14.973 Y-9.633
G1 F1800 X18.067 Y-6.539 E14.89193
G0 F9000 X18.362 Y-5.678
G1 F1800 X14.717 Y-9.324 E15.14914
G0 F9000 X14.460 Y-9.015
G1 F1800 X18.620 Y-4.854 E15.44269
G0 F9000 X18.763 Y-4.146
G1 F1800 X14.203 Y-8.706 E15.76442
G0 F9000 X13.946 Y-8.397
G1 F1800 X18.905 Y-3.438 E16.11431
G0 F9000 X19.048 Y-2.730
G1 F1800 X13.690 Y-8.088 E16.49234
G0 F9000 X13.433 Y-7.779
G1 F1800 X19.118 Y-2.095 E16.89341
G0 F9000 X19.157 Y-1.489
G1 F1800 X13.176 Y-7.470 E17.31541
G0 F9000 X12.920 Y-7.161
G1 F1800 X19.197 Y-0.883 E17.75832
G0 F9000 X19.238 Y-0.277
G1 F1800 X12.663 Y-6.852 E18.22222
G0 F9000 X12.406 Y-6.543
G1 F1800 X19.237 Y0.287 E18.70415
G0 F9000 X19.202 Y0.818
G1 F1800 X12.150 Y-6.234 E19.20170
G0 F9000 X11.893 Y-5.925
G1 F1800 X19.168 Y1.349 E19.71496
G0 F9000 X19.133 Y1.880
G1 F1800 X11.636 Y-5.616 E20.24388
G0 F9000 X11.380 Y-5.307
G1 F1800 X19.098 Y2.411 E20.78842
G0 F9000 X19.017 Y2.895
G1 F1800 X11.123 Y-4.998 E21.34535
G0 F9000 X10.866 Y-4.689
G1 F1800 X18.923 Y3.367 E21.91378
G0 F9000 X18.829 Y3.838
G1 F1800 X10.610 Y-4.380 E22.49364
G0 F9000 X10.353 Y-4.071
G1 F1800 X18.735 Y4.310 E23.08500
G0 F9000 X18.642 Y4.782
G1 F1800 X10.096 Y-3.762 E23.68790
G0 F9000 X9.840 Y-3.453
G1 F1800 X18.519 Y5.226 E24.30025
G0 F9000 X18.376 Y5.648
G1 F1800 X9.583 Y-3.144 E24.92061
G0 F9000 X9.326 Y-2.835
G1 F1800 X18.233 Y6.071 E25.54901
G0 F9000 X18.089 Y6.493
G1 F1800 X9.070 Y-2.526 E26.18535
G0 F9000 X8.814 Y-2.216
G1 F1800 X17.946 Y6.915 E26.82963
G0 F9000 X17.803 Y7.338
G1 F1800 X8.557 Y-1.907 E27.48195
G0 F9000 X8.300 Y-1.598
G1 F1800 X17.619 Y7.720 E28.13942
G0 F9000 X17.433 Y8.099
G1 F1800 X8.044 Y-1.289 E28.80183
G0 F9000 X7.787 Y-0.980
G1 F1800 X17.246 Y8.478 E29.46917
G0 F9000 X17.059 Y8.857
G1 F1800 X7.530 Y-0.671 E30.14146
G0 F9000 X7.274 Y-0.362
G1 F1800 X16.872 Y9.235 E30.81862
G0 F9000 X16.685 Y9.614
G1 F1800 X7.017 Y-0.053 E31.50071
G0 F9000 X9.244 Y2.739
G1 F1800 X16.460 Y9.954 E32.00980
G0 F9000 X16.233 Y10.294
G1 F1800 X12.017 Y6.078 E32.30726
G0 F9000 X14.791 Y9.417
G1 F1800 X16.006 Y10.632 E32.39299
G1 F2700 E27.89299
G0 F9000 X11.002 Y15.930
;TYPE:WALL-INNER
G1 F2700 E32.39299
G1 F1800 X9.698 Y16.801 E32.47122
G1 X7.424 Y17.922 E32.59771
G1 X5.018 Y18.739 E32.72448
G1 X2.537 Y19.232 E32.85068
G1 X0.000 Y19.399 E32.97752
G1 X-2.538 Y19.232 E33.10442
G1 X-5.019 Y18.739 E33.23061
G1 X-7.425 Y17.922 E33.35738
G1 X-9.698 Y16.801 E33.48382
G1 X-11.003 Y15.930 E33.56210
G1 X0.000 Y6.791 E34.27570
G1 X11.002 Y15.930 E34.98926
G0 F9000 X9.748 Y16.888
G0 X9.898 Y17.149
;TYPE:WALL-OUTER
G1 F1800 X7.577 Y18.293 E35.11836
G1 X5.126 Y19.125 E35.24749
G1 X2.588 Y19.630 E35.37659
G1 X0.000 Y19.800 E35.50599
G1 X-2.589 Y19.630 E35.63543
G1 X-5.127 Y19.125 E35.76454
G1 X-7.578 Y18.293 E35.89367
G1 X-9.898 Y17.149 E36.02272
G1 X-11.671 Y15.965 E36.12909
G1 X0.000 Y6.271 E36.88602
G1 X11.670 Y15.965 E37.64291
G1 X9.898 Y17.149 E37.74923
G0 F9000 X9.613 Y16.684
;TYPE:FILL
G1 F1800 X-0.053 Y7.017 E38.43125
G0 F9000 X-0.362 Y7.274
G1 F1800 X9.235 Y16.872 E39.10841
G0 F9000 X8.856 Y17.058
G1 F1800 X-0.671 Y7.530 E39.78062
G0 F9000 X-0.980 Y7.787
G1 F1800 X8.477 Y17.245 E40.44790
G0 F9000 X8.098 Y17.432
G1 F1800 X-1.289 Y8.044 E41.11024
G0 F9000 X-1.598 Y8.300
G1 F1800 X7.720 Y17.619 E41.76771
G0 F9000 X7.337 Y17.802
G1 F1800 X-1.907 Y8.557 E42.41996
G0 F9000 X-2.216 Y8.814
G1 F1800 X6.915 Y17.946 E43.06424
G0 F9000 X6.493 Y18.089
G1 F1800 X-2.525 Y9.070 E43.70054
G0 F9000 X-2.834 Y9.327
G1 F1800 X6.070 Y18.232 E44.32880
G0 F9000 X5.648 Y18.376
G1 F1800 X-3.143 Y9.584 E44.94909
G0 F9000 X-3.452 Y9.840
G1 F1800 X5.226 Y18.519 E45.56141
G0 F9000 X4.782 Y18.642
G1 F1800 X-3.761 Y10.097 E46.16423
G0 F9000 X-4.070 Y10.354
G1 F1800 X4.311 Y18.736 E46.75559
G0 F9000 X3.838 Y18.829
G1 F1800 X-4.379 Y10.610 E47.33542
G0 F9000 X-4.688 Y10.867
G1 F1800 X3.367 Y18.923 E47.90377
G0 F9000 X2.895 Y19.017
G1 F1800 X-4.997 Y11.124 E48.46063
G0 F9000 X-5.306 Y11.380
G1 F1800 X2.411 Y19.098 E49.00514
G0 F9000 X1.880 Y19.133
G1 F1800 X-5.615 Y11.637 E49.53399
G0 F9000 X-5.924 Y11.894
G1 F1800 X1.349 Y19.168 E50.04718
G0 F9000 X0.818 Y19.203
G1 F1800 X-6.233 Y12.150 E50.54473
G0 F9000 X-6.542 Y12.407
G1 F1800 X0.287 Y19.238 E51.02663
G0 F9000 X-0.277 Y19.238
G1 F1800 X-6.851 Y12.664 E51.49046
G0 F9000 X-7.160 Y12.920
G1 F1800 X-0.882 Y19.199 E51.93344
G0 F9000 X-1.487 Y19.159
G1 F1800 X-7.469 Y13.177 E52.35550
G0 F9000 X-7.778 Y13.434
G1 F1800 X-2.093 Y19.120 E52.75665
G0 F9000 X-2.727 Y19.051
G1 F1800 X-8.087 Y13.691 E53.13482
G0 F9000 X-8.396 Y13.947
G1 F1800 X-3.433 Y18.910 E53.48499
G0 F9000 X-4.139 Y18.770
G1 F1800 X-8.705 Y14.204 E53.80714
G0 F9000 X-9.014 Y14.461
G1 F1800 X-4.845 Y18.630 E54.10129
G0 F9000 X-5.672 Y18.369
G1 F1800 X-9.323 Y14.717 E54.35892
G0 F9000 X-9.632 Y14.974
G1 F1800 X-6.529 Y18.077 E54.57786
G0 F9000 X-7.389 Y17.783
G1 F1800 X-9.941 Y15.231 E54.75791
G0 F9000 X-10.250 Y15.487
G1 F1800 X-8.505 Y17.232 E54.88103
G0 F9000 X-9.622 Y16.682
G1 F1800 X-10.560 Y15.743 E54.94725
G0 F9000 X2.757 Y9.262
G1 F1800 X9.954 Y16.460 E55.45507
G0 F9000 X10.293 Y16.233
G1 F1800 X6.098 Y12.038 E55.75105
G0 F9000 X9.439 Y14.813
G1 F1800 X10.632 Y16.006 E55.83522
G1 F2700 E51.33522
G0 F9000 X-6.791 Y0.002
;TYPE:WALL-INNER
G1 F2700 E55.83522
G1 F1800 X-15.929 Y11.004 E56.54875
G1 X-16.801 Y9.699 E56.62706
G1 X-17.922 Y7.425 E56.75354
G1 X-18.739 Y5.019 E56.88031
G1 X-19.232 Y2.538 E57.00651
G1 X-19.398 Y0.001 E57.13335
G1 X-19.234 Y-2.518 E57.25929
G1 X-18.741 Y-5.007 E57.38588
G1 X-17.940 Y-7.372 E57.51045
G1 X-16.823 Y-9.653 E57.63717
G1 X-15.928 Y-11.000 E57.71785
G1 X-6.791 Y0.002 E58.43135
G0 F9000 X-6.271 Y0.001
;TYPE:WALL-OUTER
G1 F1800 X-15.965 Y11.671 E59.18824
G1 X-17.149 Y9.899 E59.29456
G1 X-18.293 Y7.578 E59.42366
G1 X-19.125 Y5.127 E59.55279
G1 X-19.630 Y2.589 E59.68190
G1 X-19.799 Y0.001 E59.81129
G1 X-19.633 Y-2.544 E59.93853
G1 X-19.631 Y-2.581 E59.94038
G1 X-19.134 Y-5.083 E60.06764
G1 X-19.124 Y-5.129 E60.06999
G1 X-18.312 Y-7.521 E60.19601
G1 X-17.171 Y-9.851 E60.32545
G1 X-15.964 Y-11.669 E60.43432
G1 X-6.271 Y0.001 E61.19118
G0 F9000 X-7.015 Y0.055
;TYPE:FILL
G1 F1800 X-16.681 Y-9.610 E61.87313
G0 F9000 X-16.455 Y-9.950
G1 F1800 X-9.271 Y-2.766 E62.38000
G0 F9000 X-7.272 Y0.364
G1 F1800 X-16.870 Y-9.234 E63.05719
G0 F9000 X-17.056 Y-8.854
G1 F1800 X-7.529 Y0.673 E63.72937
G0 F9000 X-7.785 Y0.982
G1 F1800 X-17.242 Y-8.474 E64.39658
G0 F9000 X-17.428 Y-8.094
G1 F1800 X-8.042 Y1.291 E65.05878
G0 F9000 X-8.299 Y1.600
G1 F1800 X-17.615 Y-7.715 E65.71603
G0 F9000 X-17.801 Y-7.336
G1 F1800 X-8.555 Y1.909 E66.36835
G0 F9000 X-8.812 Y2.218
G1 F1800 X-17.947 Y-6.916 E67.01284
G0 F9000 X-18.089 Y-6.493
G1 F1800 X-9.069 Y2.527 E67.64925
G0 F9000 X-9.326 Y2.836
G1 F1800 X-18.232 Y-6.070 E68.27762
G0 F9000 X-18.376 Y-5.648
G1 F1800 X-9.582 Y3.145 E68.89805
G0 F9000 X-9.839 Y3.454
G1 F1800 X-18.519 Y-5.225 E69.51043
G0 F9000 X-18.642 Y-4.782
G1 F1800 X-10.096 Y3.763 E70.11336
G0 F9000 X-10.352 Y4.072
G1 F1800 X-18.736 Y-4.311 E70.70487
G0 F9000 X-18.829 Y-3.838
G1 F1800 X-10.609 Y4.381 E71.28480
G0 F9000 X-10.866 Y4.690
G1 F1800 X-18.922 Y-3.366 E71.85319
G0 F9000 X-19.016 Y-2.894
G1 F1800 X-11.122 Y4.999 E72.41012
G0 F9000 X-11.379 Y5.308
G1 F1800 X-19.100 Y-2.412 E72.95484
G0 F9000 X-19.135 Y-1.881
G1 F1800 X-11.636 Y5.617 E73.48390
G0 F9000 X-11.892 Y5.926
G1 F1800 X-19.168 Y-1.349 E73.99723
G0 F9000 X-19.203 Y-0.818
G1 F1800 X-12.149 Y6.235 E74.49489
G0 F9000 X-12.406 Y6.544
G1 F1800 X-19.238 Y-0.287 E74.97689
G0 F9000 X-19.238 Y0.277
G1 F1800 X-12.662 Y6.853 E75.44086
G0 F9000 X-12.919 Y7.162
G1 F1800 X-19.199 Y0.882 E75.88395
G0 F9000 X-19.160 Y1.487
G1 F1800 X-13.176 Y7.471 E76.30615
G0 F9000 X-13.432 Y7.780
G1 F1800 X-19.120 Y2.092 E76.70747
G0 F9000 X-19.052 Y2.726
G1 F1800 X-13.689 Y8.089 E77.08586
G0 F9000 X-13.946 Y8.398
G1 F1800 X-18.911 Y3.433 E77.43617
G0 F9000 X-18.771 Y4.138
G1 F1800 X-14.202 Y8.707 E77.75854
G0 F9000 X-14.459 Y9.016
G1 F1800 X-18.630 Y4.845 E78.05282
G0 F9000 X-18.369 Y5.671
G1 F1800 X-14.716 Y9.325 E78.31060
G0 F9000 X-14.972 Y9.634
G1 F1800 X-18.078 Y6.528 E78.52974
G0 F9000 X-17.784 Y7.388
G1 F1800 X-15.229 Y9.943 E78.71001
G0 F9000 X-15.486 Y10.252
G1 F1800 X-17.233 Y8.505 E78.83327
G0 F9000 X-16.682 Y9.621
G1 F1800 X-15.742 Y10.562 E78.89963
G0 F9000 X-12.042 Y-6.102
G1 F1800 X-16.230 Y-10.290 E79.19511
G0 F9000 X-16.003 Y-10.629
G1 F1800 X-14.812 Y-9.438 E79.27915
G1 F2700 E74.77915
G0 F9000 X-11.004 Y-15.928
;TYPE:WALL-INNER
G1 F2700 E79.27915
G1 F1800 X-9.698 Y-16.800 E79.35749
G1 X-7.476 Y-17.895 E79.48108
G1 X-5.064 Y-18.722 E79.60829
G1 X-2.542 Y-19.229 E79.73663
G1 X-0.011 Y-19.396 E79.86318
G1 X0.003 Y-19.397 E79.86388
G1 X2.518 Y-19.233 E79.98962
G1 X5.007 Y-18.740 E80.11621
G1 X7.372 Y-17.939 E80.24078
G1 X9.654 Y-16.822 E80.36754
G1 X11.001 Y-15.927 E80.44822
G1 X0.000 Y-6.789 E81.16171
G1 X-11.004 Y-15.928 E81.87535
G0 F9000 X-9.748 Y-16.887
G0 X-9.899 Y-17.148
;TYPE:WALL-OUTER
G1 F1800 X-7.627 Y-18.267 E82.00170
G1 X-5.174 Y-19.108 E82.13108
G1 X-2.623 Y-19.621 E82.26089
G1 X-0.039 Y-19.795 E82.39010
G1 X-0.003 Y-19.798 E82.39190
G1 X2.544 Y-19.632 E82.51924
G1 X2.581 Y-19.630 E82.52109
G1 X5.083 Y-19.133 E82.64836
G1 X5.129 Y-19.123 E82.65071
G1 X7.521 Y-18.311 E82.77673
G1 X9.852 Y-17.170 E82.90621
G1 X11.669 Y-15.963 E83.01504
G1 X0.000 Y-6.270 E83.77186
G1 X-11.671 Y-15.964 E84.52879
G1 X-9.899 Y-17.148 E84.63511
G0 F9000 X-9.613 Y-16.684
;TYPE:FILL
G1 F1800 X0.054 Y-7.016 E85.31720
G0 F9000 X0.363 Y-7.273
G1 F1800 X-9.234 Y-16.871 E85.99436
G0 F9000 X-8.855 Y-17.058
G1 F1800 X0.672 Y-7.529 E86.66661
G0 F9000 X0.981 Y-7.786
G1 F1800 X-8.477 Y-17.245 E87.33396
G0 F9000 X-8.098 Y-17.432
G1 F1800 X1.290 Y-8.043 E87.99637
G0 F9000 X1.599 Y-8.300
G1 F1800 X-7.719 Y-17.618 E88.65380
G0 F9000 X-7.331 Y-17.796
G1 F1800 X1.908 Y-8.556 E89.30570
G0 F9000 X2.217 Y-8.813
G1 F1800 X-6.909 Y-17.940 E89.94963
G0 F9000 X-6.488 Y-18.084
G1 F1800 X2.526 Y-9.070 E90.58561
G0 F9000 X2.835 Y-9.326
G1 F1800 X-6.067 Y-18.229 E91.21373
G0 F9000 X-5.646 Y-18.374
G1 F1800 X3.144 Y-9.583 E91.83395
G0 F9000 X3.453 Y-9.840
G1 F1800 X-5.224 Y-18.518 E92.44619
G0 F9000 X-4.777 Y-18.636
G1 F1800 X3.762 Y-10.096 E93.04870
G0 F9000 X4.071 Y-10.353
G1 F1800 X-4.306 Y-18.731 E93.63978
G0 F9000 X-3.835 Y-18.826
G1 F1800 X4.380 Y-10.610 E94.21943
G0 F9000 X4.689 Y-10.866
G1 F1800 X-3.364 Y-18.920 E94.78764
G0 F9000 X-2.893 Y-19.015
G1 F1800 X4.998 Y-11.123 E95.34443
G0 F9000 X5.307 Y-11.380
G1 F1800 X-2.409 Y-19.096 E95.88884
G0 F9000 X-1.878 Y-19.132
G1 F1800 X5.616 Y-11.636 E96.41765
G0 F9000 X5.925 Y-11.893
G1 F1800 X-1.347 Y-19.166 E96.93076
G0 F9000 X-0.816 Y-19.201
G1 F1800 X6.234 Y-12.150 E97.42822
G0 F9000 X6.543 Y-12.406
G1 F1800 X-0.285 Y-19.236 E97.91004
G0 F9000 X0.278 Y-19.237
G1 F1800 X6.852 Y-12.663 E98.37387
G0 F9000 X7.161 Y-12.920
G1 F1800 X0.883 Y-19.197 E98.81678
G0 F9000 X1.488 Y-19.159
G1 F1800 X7.470 Y-13.176 E99.23888
G0 F9000 X7.779 Y-13.433
G1 F1800 X2.093 Y-19.119 E99.64006
G0 F9000 X2.730 Y-19.048
G1 F1800 X8.088 Y-13.690 E100.01809
G0 F9000 X8.397 Y-13.946
G1 F1800 X3.436 Y-18.908 E100.36815
G0 F9000 X4.142 Y-18.768
G1 F1800 X8.706 Y-14.203 E100.69020
G0 F9000 X9.015 Y-14.460
G1 F1800 X4.847 Y-18.628 E100.98428
G0 F9000 X5.675 Y-18.365
G1 F1800 X9.324 Y-14.717 E101.24170
G0 F9000 X9.633 Y-14.973
G1 F1800 X6.531 Y-18.075 E101.46056
G0 F9000 X7.408 Y-17.764
G1 F1800 X9.942 Y-15.230 E101.63935
G0 F9000 X10.251 Y-15.487
G1 F1800 X8.517 Y-17.220 E101.76166
G0 F9000 X9.650 Y-16.653
G1 F1800 X10.560 Y-15.743 E101.82586
G0 F9000 X-2.744 Y-9.250
G1 F1800 X-9.953 Y-16.459 E102.33450
G0 F9000 X-10.293 Y-16.233
G1 F1800 X-6.081 Y-12.021 E102.63168
G0 F9000 X-9.418 Y-14.792
G1 F1800 X-10.632 Y-16.006 E102.71733
;LAYER:1
M106 S127
G0 F9000 X-9.698 Y-16.800 Z0.700
;TYPE:WALL-INNER
G1 F2040 X-7.425 Y-17.921 E102.88592
G1 X-5.231 Y-18.665 E103.04003
G1 X-5.014 Y-18.739 E103.05528
G1 X-2.538 Y-19.231 E103.22320
G1 X-0.222 Y-19.382 E103.37759
G1 X0.002 Y-19.397 E103.39253
G1 X2.308 Y-19.247 E103.54625
G1 X2.537 Y-19.231 E103.56152
G1 X5.018 Y-18.738 E103.72978
G1 X7.210 Y-17.995 E103.88374
G1 X7.428 Y-17.919 E103.89910
G1 X9.698 Y-16.800 E104.06745
G1 X11.002 Y-15.929 E104.17176
G1 X0.000 Y-6.790 E105.12318
G1 X-11.003 Y-15.929 E106.07464
G1 X-9.698 Y-16.800 E106.17901
G0 F9000 X-9.898 Y-17.148
;TYPE:WALL-OUTER
G1 F2040 X-7.578 Y-18.292 E106.35108
G1 X-5.127 Y-19.124 E106.52326
G1 X-2.589 Y-19.629 E106.69540
G1 X0.000 Y-19.798 E106.86799
G1 X2.588 Y-19.629 E107.04051
G1 X5.126 Y-19.124 E107.21264
G1 X7.577 Y-18.292 E107.38482
G1 X9.898 Y-17.148 E107.55695
